X:1
T:Buxtehude - Chaconne in C Minor. {Professional production full score.}
T:Toccata in F Major BuxWV 156
%%score { ( 1 4 6 ) | ( 2 5 ) | 3 }
L:1/8
Q:1/4=80
M:4/4
K:F
V:1 treble nm="Pipe Organ" snm="Org."
V:4 treble 
V:6 treble 
V:2 bass 
V:5 bass 
V:3 bass-8 
V:1
 z/4!f! C/4D/4E/4F/4G/4A/4B/4 A/4c/4B/4c/4d/4e/4f/4g/4 a/f/c/A/ F/[I:staff +1]C/A,/F,/ | %1
 A,/C/[I:staff -1]F/A/ cf !breath!z/ f/e/d/ c/4d/4G/4A/4 B/4E/4F/4G/4 | %2
 [FA]2 x2 z/ C/F/_E/ D/F/=E/G/ | F/C/F/G/ F/A/G/B/ z/ f/e/d/ c/d/c/B/ | %4
 c/B/A/c/ B/A/G/B/ A/G/F/A/ G/F/E/G/ | F/A/G/A/ B/c/d/e/ f2 e2 | z/ c/d/B/ c/A/B/G/ A>E FD/E/ | %7
 F4 z/ C/F- F/D/E/G/ | F/E/F/G/ F/A/G/B/ A/G/A/B/ A/c/B/d/ | %9
 z/ c/d/_e/ d/f/=e/g/ f/4g/4a/d/4e/4f/ =BA/4B/4c/4B/4 | %10
 c4 z/4 G/4A/4=B/4c/4d/4e/4c/4[Q:1/4=60] d/4e/4f/4g/4a/4=b/4[Q:1/4=40].c'/ | %11
[M:12/8][Q:1/4=120] G2 G EFG FAF DEF | z12 | c2 c ABc BdB GAB | A2 A FGA GAG FGF | %15
 E2 E CDE DFD =B,CD | C=B,C DCD E3 F3- | F3 E3- ECD CA,=B, | c2 c GAB A3 G3 | g2 g efg faf def | %20
 e3 f6 e3- | e3 d6 c3- | c3[Q:1/4=80] P=B3 c6 |[Q:1/4=110] z z c c z c A z A f z f | %24
 d z d B z B B z B B z B | A2 A z Ac z BB z BB | z AA z AA z AA z AA | %27
[M:4/4] z2 z/ G/A/B/ c/d/e/f/ z/4 A/4B/4c/4[Q:1/4=40] PB | %28
[Q:1/4=80] z/ c/d/e/[Q:1/4=75] f2[Q:1/4=70] z/ A/B/c/[Q:1/4=65] B2 | %29
[Q:1/4=60] z/ A/B/c/ B2 A/A/B/c/ A<B[Q:1/4=50] | !breath![CFA]8 |] %31
[Q:1/4=80] z2 z/ F/A/F/ c2 z/ A/c/A/ | d>cB>A GA/B<cB/ | Ad c3 f/e/ a/A/c/g/ | %34
 f/A/B/f/ e/f/e/d/ c>B A2 | GA/B/ c2 B/c/A d>c | B/A/G/B/ A>G A/G/A/F/ c2 | %37
 z/ E/F/E/ A/B/A/G/ F/G/F/E/ D/E/F | z8 | z8 | z8 | z8 | z8 | z8 | z8 | z8 | z8 | z8 | z8 | z8 | %50
 z8 | z8 | z8 | z8 | z8 | z8 | z8 | z8 | z8 | z8 | z8 | z8 | z8 | z8 | z8 | z8 | z8 | z8 | z8 | %69
 z8 | z8 | z8 | z8 | z8 | z8 | z8 | z8 | z8 | z8 | z8 | z8 | z8 | z8 | z8 | z8 | z8 | z8 | z8 | %88
 z8 | z8 | z8 | z8 | z8 | z8 | z8 | z8 | z8 | z8 | z8 | z8 | z8 | z8 |] %102
V:2
 x8 | x8 | x4 A,2 B,2 | A,3 B, C2 F,2- | F,CDB, CA,B,G, | x8 | x8 | %7
 A,/C/D/B,/ C/A,/B,/G,/ A,>C B,2 | A,3 B, C3 D | A,2 B,2 CF,/D,/- D,2 | %10
 z/ z/4 =B,,/4C,/4D,/4E,/4F,/4 G,/4C,/4D,/4E,/4F,/4G,/4A,/4=B,/4 x4 |[M:12/8] z12 | %12
 C2 C A,B,C B,DB, G,A,B, | A,6 G,3 C3- | C3 A,3 B,CB, A,B,A, | G,2 G, E,F,G, F,A,F, D,E,F, | %16
 z4 x8 | G,3- G,A,G, A,2 A, G,A,F, | G,3 C3- C2 A, =B,CD | C3- CDE DFD =B,CD | C6 D3 B,3 | %21
 C3 A,3 B,3 G,3 | A,3 PF,3 G,6 |!f! z z C C z C C z C D z D | D z D D z D D z B, B, z B, | %25
 C2 C z D[A,D] z D[G,D] z C[G,C] | z C[F,C] z C[F,C] z C[F,C] z C[F,C] |[M:4/4] z/ C3/2- C2- C4- | %28
 C8- | C4 z2 z G, | F,8 |] z8 | z8 | z8 | z4 z2 z/ F,/A,/F,/ | C2 z/ A,/C/A,/ D>CB,>A, | %36
 G,2 C>B, A,2 z/ G,/A,/G,/ | C6 B,2- | B,2 z2 z4 | z8 | z8 | z8 | z8 | z8 | z8 | z8 | z8 | z8 | %48
 z8 | z8 | z8 | z8 | z8 | z8 | z8 | z8 | z8 | z8 | z8 | z8 | z8 | z8 | z8 | z8 | z8 | z8 | z8 | %67
 z8 | z8 | z8 | z8 | z8 | z8 | z8 | z8 | z8 | z8 | z8 | z8 | z8 | z8 | z8 | z8 | z8 | z8 | z8 | %86
 z8 | z8 | z8 | z8 | z8 | z8 | z8 | z8 | z8 | z8 | z8 | z8 | z8 | z8 | z8 | z8 |] %102
V:3
 z8 | z8 | F,,8- | F,,8- | F,,8- | F,,8- | F,,8- | F,,8- | F,,8- | F,,8 | (C,,8 | %11
[M:12/8]!mp! C,,12-) | C,,12- | C,,12- | C,,12- | C,,12- | C,,12- | C,,12- | C,,12- | C,,12- | %20
 C,,12- | C,,12- | C,,12 | z C,,C, z A,,A, z F,,F, z D,,D, | z B,,B, z B,,B, z G,,G, z G,,G, | %25
 z z A, D, z D, G, z G,, C, z C, | F, z F,, A,,A,, z =B,,B,, z C,2 z |[M:4/4] C,,8- | C,,8- | %29
 C,,8 | F,,8 |] z8 | z8 | z8 | z8 | z8 | z2 z/ C,/E,/C,/ F,2 z/ E,/F,/E,/ | A,>G,F,>E, D,2 G,>F, | %38
 z8 | z8 | z8 | z8 | z8 | z8 | z8 | z8 | z8 | z8 | z8 | z8 | z8 | z8 | z8 | z8 | z8 | z8 | z8 | %57
 z8 | z8 | z8 | z8 | z8 | z8 | z8 | z8 | z8 | z8 | z8 | z8 | z8 | z8 | z8 | z8 | z8 | z8 | z8 | %76
 z8 | z8 | z8 | z8 | z8 | z8 | z8 | z8 | z8 | z8 | z8 | z8 | z8 | z8 | z8 | z8 | z8 | z8 | z8 | %95
 z8 | z8 | z8 | z8 | z8 | z8 | z8 |] %102
V:4
 x8 | x8 | z z/4 F/4E/4D/4 C/4D/4[I:staff +1]G,/4A,/4B,/4E,/4F,/4G,/4 x4 | x4[I:staff -1] A4 | %4
 [FA]FGE FCDB, | [A,C][B,D]/[CE]/ [DF]/[EG]/[FA]/[GB]/ [Ac]/[GB]/[FA]/[Ac]/ [GB]/[FA]/[EG]/[GB]/ | %6
 [FA]2 A/F/G/E/ F/E/F/C/ D/[I:staff +1]A,/B,/G,/ | x8 |[I:staff -1] C2 DE F4- | F3 G A2 F2 | %10
 [EG]4 C4 |[M:12/8] x12 | E3 FGA G3 E3- | E3 F6 E3 | F3 C3 D3 C3- | C3 z2 z z6 | x6 C2 C A,_B,C | %17
 B,DB, C2 B, x6 | C3 E3- EEF DEF | E3 z2 z z6 | c2 c ABc BdB GAB | A2 A FGA GBG EFG | FAF DEF E6 | %23
 z z E E z E F z F A z A | F z F F z F F z F E z G- | GF F z FF z FF z FE | z EF z EF z EF z EF | %27
[M:4/4] z D/E/ F4- F>E | F4- F2- F/D/E/F/ | E2- E/E/F/G/ F3- F/4D/4PE/ | x8 |] z8 | %32
 z4 z2 z/ C/E/C/ | F2 z/ E/F/E/ A>GF>E | D2 G>F E/D/E/C/ F2- | F/D/E- E>F- F>E D/E/F- | %36
 F2 E2 DC C2 | z8 | x8 | x8 | x8 | x8 | x8 | x8 | x8 | x8 | x8 | x8 | x8 | x8 | x8 | x8 | x8 | x8 | %54
 x8 | x8 | x8 | x8 | x8 | x8 | x8 | x8 | x8 | x8 | x8 | x8 | x8 | x8 | x8 | x8 | x8 | x8 | x8 | %73
 x8 | x8 | x8 | x8 | x8 | x8 | x8 | x8 | x8 | x8 | x8 | x8 | x8 | x8 | x8 | x8 | x8 | x8 | x8 | %92
 x8 | x8 | x8 | x8 | x8 | x8 | x8 | x8 | x8 | x8 |] %102
V:5
 x8 | x8 | x8 | x8 | x8 | x8 | x8 | z/ A,/B,/G,/ A,/F,/G,/E,/ F,>E, G,2 | x8 | x8 | x8 | %11
[M:12/8] x12 | x12 | x12 | x12 | x12 | E,D,E, F,E,F, G,3 CG,A, | x6 F,3 E,2 D, | E,3 x9 | x12 | %20
 x12 | x12 | x12 | x12 | x12 | x12 | x12 |[M:4/4] x8 | x8 | x8 | x8 |] x8 | x8 | x8 | x8 | x8 | %36
 x8 | x8 | x8 | x8 | x8 | x8 | x8 | x8 | x8 | x8 | x8 | x8 | x8 | x8 | x8 | x8 | x8 | x8 | x8 | %55
 x8 | x8 | x8 | x8 | x8 | x8 | x8 | x8 | x8 | x8 | x8 | x8 | x8 | x8 | x8 | x8 | x8 | x8 | x8 | %74
 x8 | x8 | x8 | x8 | x8 | x8 | x8 | x8 | x8 | x8 | x8 | x8 | x8 | x8 | x8 | x8 | x8 | x8 | x8 | %93
 x8 | x8 | x8 | x8 | x8 | x8 | x8 | x8 | x8 |] %102
V:6
 x8 | x8 | x8 | x8 | x8 | x8 | x8 | x8 | x8 | x8 | x8 |[M:12/8] x12 | x12 | x12 | x12 | x12 | x12 | %17
 x12 | x12 | x12 | x12 | x12 | x12 | x12 | x12 | x12 | x12 |[M:4/4] x8 | A2- A/c/B/A/ PG4 | %29
 G2- G2 x4 | x8 |] x8 | x8 | x8 | x8 | x8 | x8 | x8 | x8 | x8 | x8 | x8 | x8 | x8 | x8 | x8 | x8 | %47
 x8 | x8 | x8 | x8 | x8 | x8 | x8 | x8 | x8 | x8 | x8 | x8 | x8 | x8 | x8 | x8 | x8 | x8 | x8 | %66
 x8 | x8 | x8 | x8 | x8 | x8 | x8 | x8 | x8 | x8 | x8 | x8 | x8 | x8 | x8 | x8 | x8 | x8 | x8 | %85
 x8 | x8 | x8 | x8 | x8 | x8 | x8 | x8 | x8 | x8 | x8 | x8 | x8 | x8 | x8 | x8 | x8 |] %102

